!!!!SEGMENT: pl-lzu--m-15111--001-050_noskowski-zygmunt--spiewnik-dla-dzieci-op-34-50-dobranoc.krn
!!!cenid: 18xx:4698
!!!COM: Noskowski, Zygmunt
!!!COM-rismID: pe106604
!!!CDT: 1846/05/02-1909/07/23
!!!CNT: Polish
!!!GTL: Śpiewnik dla dzieci, op. 34
!!!OTL: 1. Zła Zima
!!!OMV: 001
!!!PDT: 1890
!!!AGN: Secular; Song; Children
!!!YEC: Copyright 2022 Narodowy Instytut Fryderyka Chopina (https://polishscores.org)
!!!YEM: License CC-BY-4.0 (https://creativecommons.org/licenses/by/4.0)
!!!SMS-siglum: PL-LŹu
!!!SMS-shelfmark: M 15111
!!!SMS-variant:
!!!SMS-altvar:
!!!SMS-shelfwork: 001-001 G
!!!NIFC-rismSourceID: 1001234040
!!!NIFC-rismChildID: 1001234040
!!!NIFC-islandoraID: pl-lzu:5455
!!!URL-pdf-islandora: https://repozytorium.nifc.pl/islandora/object/pl-lzu%3A5455/datastream/PDF/view
!!!URL-scan: https://polish.musicsources.pl/pl/lokalizacje/galeria/druki-muzyczne/23228/8 @EN{Scan on Polish Music Sources Website} @PL{Skany w portalu Dziedzictwo Muzyki Polskiej w otwartym dostępie}
!!!IIIF:
!!!ONB-nifc:
!!!AIN: 1 piano 1 vox
!!!key: f#
!!!OMD: Allegro non troppo ma risoluto.
**kern	**kern	**dynam	**kern	**text	**text	**text	**dynam
*part2	*part2	*part2	*part1	*part1	*part1	*part1	*part1
*staff3	*staff2	*staf2/3	*staff1	*staff1	*staff1	*staff1	*staff1
*I"[Piano]	*I"[Piano]	*	*I"[Voice]	*	*	*	*
*I'pf	*I'pf	*	*I'V	*	*	*	*
*Ipiano	*Ipiano	*	*Ivox	*	*	*	*
*ICklav	*ICklav	*	*ICvox	*	*	*	*
*IGacomp	*IGacomp	*	*IGsolo	*	*	*	*
*>[A,B,B,B]	*>[A,B,B,B]	*>[A,B,B,B]	*>[A,B,B,B]	*>[A,B,B,B]	*>[A,B,B,B]	*>[A,B,B,B]	*>[A,B,B,B]
*>A	*>A	*>A	*>A	*>A	*>A	*>A	*>A
*clefF4	*clefG2	*	*clefG2	*	*	*	*
*k[f#c#g#]	*k[f#c#g#]	*	*k[f#c#g#]	*	*	*	*
*f#:	*f#:	*	*f#:	*	*	*	*
*M2/4	*M2/4	*	*M2/4	*	*	*	*
=1	=1	=1	=1	=1	=1	=1	=1
!	!LO:TX:a:i:t=Żwawo i silnie.	!LO:DY:rj	!	!	!	!	!
(16F#^\LL	(16f#^/LL	f	2r	.	.	.	.
16G#\	16g#/	.	.	.	.	.	.
16F#\	16f#/	.	.	.	.	.	.
16G#\JJ	16g#/JJ	.	.	.	.	.	.
16A\LL	16a/LL	.	.	.	.	.	.
16B\	16b/	.	.	.	.	.	.
16A\	16a/	.	.	.	.	.	.
16G#\JJ)	16g#/JJ)	.	.	.	.	.	.
=2	=2	=2	=2	=2	=2	=2	=2
(16A^\LL	(16a^/LL	.	2r	.	.	.	.
16G#\	16g#/	.	.	.	.	.	.
16F#\	16f#/	.	.	.	.	.	.
16G#\JJ	16g#/JJ	.	.	.	.	.	.
16A\LL	16a/LL	.	.	.	.	.	.
16B\	16b/	.	.	.	.	.	.
16A\	16a/	.	.	.	.	.	.
16G#\JJ)	16g#/JJ)	.	.	.	.	.	.
=3	=3	=3	=3	=3	=3	=3	=3
(16A^\LL	(16a^/LL	.	2r	.	.	.	.
16G#\	16g#/	.	.	.	.	.	.
16F#\	16f#/	.	.	.	.	.	.
16G#\JJ	16g#/JJ	.	.	.	.	.	.
16A\LL	16a/LL	.	.	.	.	.	.
16G#\	16g#/	.	.	.	.	.	.
16A\	16a/	.	.	.	.	.	.
16B\JJ)	16b/JJ)	.	.	.	.	.	.
=4	=4	=4	=4	=4	=4	=4	=4
8c#\L	8cc#^/L	.	2r	.	.	.	.
8C#\J	8c#/J	sfz	.	.	.	.	.
4r	4r	.	.	.	.	.	.
!!LO:LB:g=original
=5||	=5||	=5||	=5||	=5||	=5||	=5||	=5||
=!|:	=!|:	=!|:	=!|:	=!|:	=!|:	=!|:	=!|:
*>B	*>B	*>B	*>B	*>B	*>B	*>B	*>B
*	*	*	*	*v:1.2.3.	*	*	*
!	!	!LO:DY:rj	!	!	!	!	!LO:DY:a
4A 4F#\	4f# 4c#/	f	8f#/	Hu!	.	.	f
.	.	.	8f#/	hu!	.	.	.
4G# 4E\	4cc# 4g# 4c#/	.	4cc#^\	ha!	.	.	.
=6	=6	=6	=6	=6	=6	=6	=6
4F# 4D\	4f# 4c# 4A/	.	8f#/	Hu!	.	.	.
.	.	.	8f#/	hu!	.	.	.
4G# 4C#\	4cc# 4e#X 4c#/	.	4cc#^\	ha!	.	.	.
=7	=7	=7	=7	=7	=7	=7	=7
*	*^	*	*	*	*	*	*
4.G# 4.GG#/	8.b/L	4.f# 4.d\	.	8.b/	Na-	.	.	.
.	16a/Jk	.	.	16a/	-sza	.	.	.
.	8b/L	.	.	8b/	zi-	.	.	.
8C# 8CC#/	8cc#/J	8e#X 8c#\	.	8cc#\	-ma	.	.	.
*	*v	*v	*	*	*	*	*	*
=8	=8	=8	=8	=8	=8	=8	=8
16FF#/LL	2a 2f# 2c#/	>	2a/	zła!	.	.	.
16C#/	.	.	.	.	.	.	.
16FF#/	.	.	.	.	.	.	.
16C#/JJ	.	.	.	.	.	.	.
16FF#/LL	.	.	.	.	.	.	.
16C#/	.	.	.	.	.	.	.
16FF#/	.	.	.	.	.	.	.
16C#/JJ	.	]	.	.	.	.	.
!!LO:PB:g=original
=9	=9	=9	=9	=9	=9	=9	=9
*	*	*	*	*v:1	*v:2	*v:3	*
!	!	!LO:DY:rj	!	!	!	!	!LO:DY:a:rj
16FF#/LL	8.g#L 8.f# 8.B^/	p	8.g#^>/	Szczy-	Płach-	A	mf
16C#/	.	.	.	.	.	.	.
16FF#/	.	.	.	.	.	.	.
16C#/JJ	16g#Jk 16f# 16B'/	.	16g#/	-pie	-ta	my	.
16FF#/LL	8g#L 8f# 8B'/	.	8g#/	w no-	na	jej	.
16C#/	.	.	.	.	.	.	.
16FF#/	8aJ 8f# 8c#'/	.	8a/	-sy,	niej	się	.
16C#/JJ	.	.	.	.	.	.	.
=10	=10	=10	=10	=10	=10	=10	=10
16FF#/LL	8f#L 8A'/	.	8f#/	szczy-	dłu-	nie	.
16C#/	.	.	.	.	.	.	.
16FF#/	8g# 8f# 8B'/	.	8g#/	-pie	-ga,	bo-	.
16C#/JJ	.	.	.	.	.	.	.
16FF#/LL	8a 8f# 8c#'/	.	8a/	w u-	bia-	-i-	.
16C#/	.	.	.	.	.	.	.
16FF#/	8f#J 8A'/	.	8f#/	-szy,	-ła,	-my,	.
16C#/JJ	.	.	.	.	.	.	.
=11	=11	=11	=11	=11	=11	=11	=11
16FF#/LL	8.g#L 8.f# 8.B^/	.	8.g#^>/	Mro-	W rę-	Da-	.
16C#/	.	.	.	.	.	.	.
16FF#/	.	.	.	.	.	.	.
16C#/JJ	16g#Jk 16f# 16B'/	.	16g#/	-źnym	-ku	-lej	.
16FF#/LL	8g#L 8f# 8B'/	.	8g#/	śnie-	ga-	śnież-	.
16C#/	.	.	.	.	.	.	.
16FF#/	8aJ 8f# 8c#'/	.	8a/	-giem	-łąź	-kiem	.
16C#/JJ	.	.	.	.	.	.	.
=12	=12	=12	=12	=12	=12	=12	=12
16FF#/LL	8f#L 8A'/	.	8f#/	w o-	o-	w ple-	.
16C#/	.	.	.	.	.	.	.
16FF#/	8g# 8f# 8B'/	.	8g#/	-czy	-szro-	-cy	.
16C#/JJ	.	.	.	.	.	.	.
16FF#/LL	8a 8f# 8c#'/	.	8a/	pru-	-nia-	zi-	.
16C#/	.	.	.	.	.	.	.
16FF#/	8cc#J 8f# 8e'/	.	8cc#\	-szy,	-ła	-my	.
16C#/JJ	.	.	.	.	.	.	.
!!LO:LB:g=original
=13	=13	=13	=13	=13	=13	=13	=13
*	*	*	*	*v:1	*v:2	*v:3	*
16FF#/LL	8bL 8f# 8d'/	.	8b/	Wi-	A	Niech	.
16C#/	.	.	.	.	.	.	.
16FF#/	8a 8f# 8c#'/	.	8a/	-chrem	na	pa-	.
16C#/JJ	.	.	.	.	.	.	.
16FF#/LL	8g# 8f# 8B'/	.	8g#/	w po-	ple-	-mią-	.
16C#/	.	.	.	.	.	.	.
16FF#/	8f#J 8A'/	.	8f#/	-lu	-cach	-tkę	.
16C#/JJ	.	.	.	.	.	.	.
=14	=14	=14	=14	=14	=14	=14	=14
16FF#/LL	2g# 2e#X 2B/	.	2g#/	gna!	drwa...	ma.	.
16C#/	.	.	.	.	.	.	.
16FF#/	.	.	.	.	.	.	.
16C#/JJ	.	.	.	.	.	.	.
16FF#/LL	.	.	.	.	.	.	.
16C#/	.	.	.	.	.	.	.
16FF#/	.	.	.	.	.	.	.
16C#/JJ	.	.	.	.	.	.	.
=15	=15	=15	=15	=15	=15	=15	=15
*	*	*	*	*v:1.2.3.	*	*	*
!	!	!	!	!	!	!	!LO:DY:a:rj
4FF#/	8.aL 8.f# 8.A/	<	8.a/	Na-	.	.	f
.	16g#/Jk	.	16g#/	-sza	.	.	.
8r	8a/L	.	8a/	zi-	.	.	.
8E 8EE/	8bJ 8g# 8en/	[	8b/	-ma	.	.	.
=16	=16	=16	=16	=16	=16	=16	=16
4A 4AA/	4cc# 4a 4e/	f	(<4cc#\	zła!	.	.	.
4C# 4CC#;/	4ee 4g# 4e;/	.	4ee;\)	.	.	.	.
=17	=17	=17	=17	=17	=17	=17	=17
!	!	!	!	!	!	!	!LO:DY:a
4BB 4BBB/	8.ddL 8.a 8.f#/	>	8.dd\	Na-	.	.	>
.	16cc#/Jk	.	16cc#\	-sza	.	.	.
8r	8b/L	.	8b/	zi-	.	.	.
8C# 8CC#/	8g#J 8e#X 8B/	]	8g#/	-ma	.	.	]
!!LO:LB:g=original
=18	=18	=18	=18	=18	=18	=18	=18
*	*	*	*	*v:1.2.3.	*	*	*
4C# 4FF#/	4f# 4A/	.	[2f#/	zła!	.	.	.
4r	4r	.	.	.	.	.	.
=19	=19	=19	=19	=19	=19	=19	=19
8c#L 8F#\	(16ff#^\LL	mf	2f#/_	.	.	.	.
.	16cc#\	.	.	.	.	.	.
8c#J 8F#\	16aa\	.	.	.	.	.	.
.	16gg#\JJ	.	.	.	.	.	.
4d 4F#^\	16ff#\LL	.	.	.	.	.	.
.	16gg#\	.	.	.	.	.	.
.	16aa\	.	.	.	.	.	.
.	16ccc#\JJ)	.	.	.	.	.	.
=20	=20	=20	=20	=20	=20	=20	=20
8c#L 8F#\	(16ff#^\LL	.	4f#/]	.	.	.	.
.	16cc#\	.	.	.	.	.	.
8c#J 8F#\	16aa\	.	.	.	.	.	.
.	16gg#\JJ	.	.	.	.	.	.
4d 4F#^\	16ff#\LL	.	4r	.	.	.	.
.	16gg#\	.	.	.	.	.	.
.	16aa\	.	.	.	.	.	.
.	16bb\JJ)	.	.	.	.	.	.
=21	=21	=21	=21	=21	=21	=21	=21
8AL 8F#'\	(16ccc#\LL	.	2r	.	.	.	.
.	16ddd\	.	.	.	.	.	.
8AJ 8F#'\	16ccc#\	.	.	.	.	.	.
.	16fff#\JJ	.	.	.	.	.	.
8BL 8F#'\	16eee\LL	.	.	.	.	.	.
.	16ddd\	.	.	.	.	.	.
8dJ 8F#'\	16ccc#\	.	.	.	.	.	.
.	16bb\JJ	.	.	.	.	.	.
=22	=22	=22	=22	=22	=22	=22	=22
8c#L 8F#'\	16aa\LL	.	2r	.	.	.	.
.	16bb\	.	.	.	.	.	.
8BJ 8F#\	16gg#\	.	.	.	.	.	.
.	16ccc#\JJ)	.	.	.	.	.	.
8A 8F#^\	8ff#^\	.	.	.	.	.	.
8r	8r	.	.	.	.	.	.
=:|!	=:|!	=:|!	=:|!	=:|!	=:|!	=:|!	=:|!
*-	*-	*-	*-	*-	*-	*-	*-
!!!system-decoration: p1{p2}
!!!RDF**kern: > = above
!!!RDF**kern: < = below
!!!ENC: Andrzej Gręziak
!!!END: 2025-03-03
!!!ENC: Marta Lawrence
!!!END: 2025-03-18
